packages/ui-icons/svg/Solid/notepad.svg

<svg viewBox="0 0 1920 1920" xmlns="http://www.w3.org/2000/svg">
    <g fill-rule="evenodd">
        <path d="M1164.23 160.333h304.01v337.82L840.282 1126.11c-31.623 31.62-49.694 74.54-49.694 119.71v395.3h395.292c45.18 0 88.1-18.07 119.72-49.7l162.64-162.63V1867H0V160.333h329.104C351.069 98.19 410.335 53.667 480 53.667h533.33c69.67 0 128.93 44.523 150.9 106.666Zm-737.563 53.334c0-29.456 23.878-53.334 53.333-53.334h533.33c29.46 0 53.34 23.878 53.34 53.334v160H426.667v-160Z"/>
        <path d="m1677.57 528.308 225.88 225.882c22.02 22.024 22.02 57.713 0 79.85l-677.65 677.65c-10.62 10.5-24.96 16.49-39.98 16.49H903.467v-282.36c0-15.02 5.986-29.36 16.489-39.87L1597.6 528.308c22.14-22.137 57.83-22.137 79.97 0Zm-129.55 209.28 146.03 146.033 89.56-89.562-146.03-146.033-89.56 89.562Z"/>
    </g>
</svg>

<svg viewBox="0 0 1920 1920" version="1.1" xmlns="http://www.w3.org/2000/svg">
    <g stroke="none" stroke-width="1" fill-rule="evenodd">
        <path d="M1164.23,160.333 L1468.24,160.333 L1468.24,498.153 L840.282,1126.11 C808.659,1157.73 790.588,1200.65 790.588,1245.82 L790.588,1641.12 L1185.88,1641.12 C1231.06,1641.12 1273.98,1623.05 1305.6,1591.42 L1468.24,1428.79 L1468.24,1867 L0,1867 L0,160.333 L329.104,160.333 C351.069,98.19 410.335,53.667 480,53.667 L1013.33,53.667 C1083,53.667 1142.26,98.19 1164.23,160.333 Z M426.667,213.667 C426.667,184.211 450.545,160.333 480,160.333 L1013.33,160.333 C1042.79,160.333 1066.67,184.211 1066.67,213.667 L1066.67,373.667 L426.667,373.667 L426.667,213.667 Z"/>
        <path d="M1677.57,528.308 L1903.45,754.19 C1925.47,776.214 1925.47,811.903 1903.45,834.04 L1225.8,1511.69 C1215.18,1522.19 1200.84,1528.18 1185.82,1528.18 L903.467,1528.18 L903.467,1245.82 C903.467,1230.8 909.453,1216.46 919.956,1205.95 L1597.6,528.308 C1619.74,506.171 1655.43,506.171 1677.57,528.308 Z M1548.02,737.588 L1694.05,883.621 L1783.61,794.059 L1637.58,648.026 L1548.02,737.588 Z"/>
    </g>
</svg>
